X:151
%%etbk:tnset id:182,pos:7,rep:2x,ant:
%%etbk:tnset id:52,pos:5,rep:3x,ant:
%%etbk:wsite http://www.thesession.org/tunes/display/20
%%etbk:skill ?
%%etbk:pldat 2013-10-30T17:37,2013-10-29T17:09,2013-10-27T14:06,2013-10-17T18:57,2013-10-14T18:19,2013-10-11T18:31,2013-10-07T17:49
T: Cup Of Tea, The
Z: Piano Box Version by Martin Fleischmann
H: Created 2013-02-19 /  Last Modified 2013-02-19
M: 4/4
L: 1/8
R: reel
K: Edor
|:!5!BAGF !3!G!1!EEF | !3!G!1!E!5!BE !3!G!1!EE2 | !5!BAGF !3!GEEG | !2!FD!4!AD !2!F!1!DD2 |
!5!BAGF !3!G!1!E!2!E!1!E | !3!GE!5!BE !3!G!1!EE2 | !2!B3!1!A !2!G!1!ABc | !4!dB!1!A!3!G !2!F!1!D D2:|
|:!5!d2 !2!eg !3!f!1!d!4!e!2!c | !1!d2 eg !3!f!1!BB2 | !1!d2eg !3!f!1!d!5!e!3!c | !4!dB!1!A!3!G !2!F!1!D D2 |
!5!d2 !2!eg !3!fd!4!e!2!c | !1!dfaf !4!g2fg | !5!af!4!ge !3!fd!5!e!3!c | !4!dB!1!A!3!G !2!F!1!D D2:|
|:!2!F!3!A!5!dA !2!F!3!A!4!BA | !2!F!3!A!5!d!3!A !2!F!1!EE2 | !2!F!3!A!5!d!3!A !2!F!1!A!2!Bc | !4!dB!1!A!3!G !2!F!1!D D2 |
!2!F!3!A!5!dA !2!F!3!A!4!BA | !2!F2!5!d!2!e !3!f!2!ee2 | !3!fd!5!ec !4!dB!1!A!2!F | !3!G!5!BAG !2!F!1!D D2:|
